X: 17644
T: Hole In The Kettle, The
R: reel
M: 4/4
K: Eminor
|:B,EGB A2 GE|DB, ~B,2 DEFD|EFGA Beed|BdAG FD D2|
e3f edBA|G/A/B AG FD ~D2|B,E G/A/B edBA|G/A/B AF E2z2:|
|:Beba gf ~f2|Befg fe ~e2|ad ~d2 Adfd|afed Beef|
g3f dB ~B2|AdBA FD ~D2|B,E G/A/B edBA|G/A/B AF E2z2:|

